src/icons/gravatar/user4.svg

<svg width="104" height="118" viewBox="0 0 104 118" fill="none" xmlns="http://www.w3.org/2000/svg">
<path d="M44.9729 23.18C44.9729 21.18 45.2029 19.06 45.4429 16.98C45.4415 16.7287 45.4945 16.4801 45.5984 16.2513C45.7023 16.0225 45.8544 15.8189 46.0445 15.6545C46.2345 15.4901 46.4579 15.3688 46.6993 15.299C46.9407 15.2292 47.1944 15.2125 47.4429 15.25C47.9429 15.25 48.4428 15.25 48.9628 15.3C50.3928 15.39 50.9629 15.89 51.2229 17.3C51.5729 19.44 51.8729 21.59 52.2229 23.73C52.3029 24.34 52.3928 24.95 52.4229 25.56C52.4935 25.972 52.406 26.3955 52.178 26.7459C51.95 27.0963 51.5982 27.3477 51.1929 27.45C49.9427 27.9219 48.6451 28.2572 47.3228 28.45C46.814 28.4905 46.3089 28.335 45.9111 28.0152C45.5132 27.6954 45.2527 27.2356 45.1828 26.73C45.0142 25.5546 44.944 24.3671 44.9729 23.18Z" fill="#569315"/>
<path d="M51.143 24.97C52.043 18.54 54.1429 12.26 59.5329 7.49C61.729 5.60487 64.2097 4.07932 66.8829 2.97C69.5159 1.88335 72.2028 0.932108 74.933 0.12C75.0997 0.0553452 75.2748 0.0149339 75.4529 0C75.9229 0 76.1229 0.15 76.0629 0.63C76.0268 0.916857 75.9387 1.19473 75.803 1.45C74.203 4.64 72.723 7.9 70.903 10.98C68.867 14.2779 66.2635 17.1894 63.213 19.58C60.4344 21.9404 57.3498 23.9149 54.0429 25.45C53.4129 25.72 52.763 25.94 52.113 26.15C51.273 26.45 51.063 26.26 51.143 24.97Z" fill="#96C11F"/>
<path d="M63.9029 110.8L62.4329 111.32C59.6414 112.242 57.1365 113.871 55.1629 116.05C53.4029 118.05 51.2529 117.82 49.8029 115.54C49.0629 114.39 48.3429 113.22 47.6229 112.05C46.549 110.266 44.9392 108.866 43.0229 108.05C40.7016 107.144 38.3104 106.428 35.8729 105.91C32.4605 105.096 29.1169 104.016 25.8729 102.68C20.7129 100.521 16.0777 97.2774 12.2818 93.1691C8.48586 89.0609 5.61804 84.1842 3.87292 78.87C0.465848 69.0932 -0.16414 58.5632 2.05293 48.45C3.28795 42.2312 6.36448 36.5276 10.8829 32.08C13.6784 29.4049 16.9295 27.2511 20.4829 25.72C22.4361 24.9522 24.498 24.4966 26.5929 24.37C27.1929 24.3 27.8029 24.25 28.4029 24.22C27.1303 25.0988 25.9358 26.0858 24.8329 27.17C20.3145 31.6176 17.2379 37.3212 16.0029 43.54C13.7962 53.6674 14.4436 64.2086 17.8729 73.99C19.618 79.3042 22.4859 84.1809 26.2818 88.2891C30.0777 92.3974 34.7129 95.641 39.8729 97.8C43.1169 99.1357 46.4605 100.216 49.8729 101.03C52.3104 101.548 54.7016 102.264 57.0229 103.17C58.9392 103.986 60.549 105.386 61.6229 107.17C62.3429 108.34 63.0629 109.51 63.8029 110.66C63.834 110.708 63.8674 110.755 63.9029 110.8Z" fill="#FF8D8D"/>
<path d="M98.913 85.1801C96.7367 90.5118 93.6959 95.448 89.913 99.7901C88.5539 101.343 86.9026 102.614 85.0531 103.53L84.253 103.92C80.5785 105.601 76.7767 106.989 72.883 108.07H72.783C69.783 108.94 66.843 109.76 63.913 110.77C63.8697 110.716 63.8297 110.659 63.793 110.6C63.053 109.45 62.3331 108.28 61.6131 107.11C60.5391 105.326 58.9293 103.926 57.013 103.11C54.6918 102.204 52.3005 101.488 49.8631 100.97C46.4506 100.156 43.1071 99.0758 39.8631 97.7401C34.7031 95.5811 30.0678 92.3375 26.2719 88.2292C22.476 84.121 19.6082 79.2443 17.8631 73.9301C14.4337 64.1487 13.7864 53.6075 15.993 43.4801C17.2281 37.2613 20.3046 31.5577 24.823 27.1101C25.957 26.0425 27.1816 25.0756 28.483 24.2201C33.5147 23.8504 38.5703 24.4548 43.373 26.0001C44.503 26.3601 45.623 26.7801 46.733 27.2501C46.9667 27.3674 47.222 27.4354 47.483 27.4501C47.8144 27.4476 48.1403 27.3653 48.433 27.2101C53.8257 24.7236 59.553 23.0391 65.4331 22.2101C71.5287 21.312 77.7447 21.6969 83.6831 23.3401C86.7303 24.178 89.6118 25.5308 92.203 27.3401C94.7394 29.1541 96.7982 31.5561 98.203 34.3401C100.58 38.9035 102.108 43.8606 102.713 48.9701C103.286 52.9149 103.594 56.8939 103.633 60.8801C103.798 69.2229 102.189 77.5055 98.913 85.1801Z" fill="#FF9999"/>
<path d="M54.643 22.7299C54.5203 22.7354 54.3981 22.7106 54.2872 22.6577C54.1763 22.6048 54.0801 22.5255 54.007 22.4268C53.9339 22.328 53.8862 22.2128 53.8681 22.0913C53.8499 21.9698 53.8619 21.8457 53.903 21.7299C53.9866 21.4927 54.1275 21.2797 54.313 21.1099C58.123 16.8999 61.913 12.6799 65.743 8.49992C67.253 6.84992 68.863 5.27992 70.433 3.67992C70.662 3.40058 70.9441 3.16945 71.263 2.99992C71.4106 2.9285 71.5776 2.90742 71.7384 2.93993C71.8991 2.97244 72.0448 3.05674 72.153 3.17992C72.266 3.30002 72.333 3.45615 72.3421 3.62081C72.3513 3.78546 72.302 3.94805 72.203 4.07992C72.0555 4.28591 71.888 4.47684 71.703 4.64993C67.883 8.33993 64.353 12.3199 60.833 16.2899C59.103 18.2899 57.333 20.1399 55.583 22.0699C55.3564 22.3929 55.0238 22.6264 54.643 22.7299Z" fill="white"/>
<path d="M93.4829 45.4499C92.5629 36.5499 86.2829 29.4499 77.3329 28.0499C74.8129 27.6599 73.7329 31.5099 76.2729 31.9099C83.3329 33.0099 88.7429 38.2199 89.4829 45.4499C89.7429 47.9599 93.7529 47.9899 93.4829 45.4499Z" fill="white"/>
<path d="M95.9128 55.69C95.1228 53.25 91.2528 54.29 92.0528 56.75C93.5292 61.1312 93.6061 65.8632 92.2728 70.29C91.5428 72.77 95.4028 73.82 96.1328 71.36C97.6613 66.2368 97.5845 60.7684 95.9128 55.69Z" fill="white"/>
<path d="M31.6629 63.8001C34.3329 63.9401 36.6629 64.8001 38.2729 67.0901C38.6853 67.6545 38.9531 68.3113 39.053 69.0031C39.153 69.6949 39.0819 70.4006 38.8461 71.0586C38.6104 71.7167 38.217 72.3069 37.7005 72.7778C37.1839 73.2487 36.5599 73.586 35.8829 73.7601C34.8197 74.0826 33.6984 74.1664 32.599 74.0057C31.4996 73.8449 30.4493 73.4435 29.5229 72.8301C28.6574 72.3256 27.8665 71.7029 27.1729 70.9801C26.7192 70.5204 26.3835 69.9577 26.1945 69.3401C26.0056 68.7225 25.969 68.0683 26.0879 67.4335C26.2068 66.7987 26.4777 66.2021 26.8773 65.6947C27.277 65.1874 27.7936 64.7843 28.3829 64.5201C29.3917 63.9896 30.5247 63.7409 31.6629 63.8001Z" fill="#FF556E"/>
<path d="M70.963 74.29C70.0575 74.3252 69.1585 74.1232 68.3552 73.7039C67.5518 73.2847 66.8719 72.6629 66.383 71.9C65.8495 71.1682 65.6055 70.265 65.6978 69.3641C65.7901 68.4633 66.2122 67.6284 66.883 67.02C67.964 65.9729 69.2746 65.1927 70.7103 64.7413C72.146 64.2899 73.6672 64.1799 75.153 64.42C78.513 64.95 79.443 69.13 77.463 71.36C76.6594 72.2936 75.661 73.0398 74.538 73.546C73.415 74.0522 72.1947 74.3061 70.963 74.29Z" fill="#FF556E"/>
<path d="M51.483 70.68C48.9886 70.7642 46.519 70.1623 44.343 68.94C43.7633 68.6151 43.2316 68.2112 42.763 67.74C42.3024 67.2966 42.0236 66.6974 41.981 66.0595C41.9385 65.4216 42.1353 64.7907 42.533 64.29C42.756 63.9836 43.0475 63.7336 43.3844 63.56C43.7212 63.3863 44.094 63.2939 44.473 63.29C45.0164 63.2934 45.5461 63.4607 45.993 63.77L46.143 63.87C46.7563 64.3211 47.4294 64.6846 48.143 64.95C49.2279 65.3022 50.3623 65.4778 51.503 65.47C52.6957 65.4558 53.883 65.3082 55.043 65.03C56.1041 64.7851 57.1316 64.4124 58.103 63.92C58.4223 63.7463 58.7571 63.6023 59.103 63.49C59.3685 63.4072 59.6448 63.3634 59.923 63.36C60.3616 63.3579 60.7928 63.4725 61.1724 63.6922C61.5521 63.9119 61.8663 64.2287 62.083 64.61C62.3829 65.1137 62.4971 65.7064 62.4058 66.2854C62.3144 66.8644 62.0233 67.3932 61.583 67.78C61.2155 68.0891 60.8086 68.348 60.373 68.55C57.6248 69.912 54.6001 70.6237 51.533 70.63L51.483 70.68Z" fill="black"/>
<path d="M37.603 62.4299C39.9613 62.4299 41.873 60.5181 41.873 58.1599C41.873 55.8016 39.9613 53.8899 37.603 53.8899C35.2447 53.8899 33.333 55.8016 33.333 58.1599C33.333 60.5181 35.2447 62.4299 37.603 62.4299Z" fill="black"/>
<path d="M37.9429 56.85C37.9448 57.1713 37.8512 57.4858 37.674 57.7538C37.4968 58.0217 37.2439 58.2309 36.9474 58.3548C36.651 58.4786 36.3245 58.5115 36.0093 58.4493C35.6941 58.3872 35.4045 58.2327 35.1774 58.0055C34.9502 57.7783 34.7957 57.4888 34.7335 57.1736C34.6713 56.8584 34.7043 56.5319 34.8281 56.2354C34.952 55.939 35.1611 55.6861 35.4291 55.5089C35.697 55.3316 36.0116 55.238 36.3329 55.24C36.7599 55.24 37.1694 55.4096 37.4713 55.7116C37.7732 56.0135 37.9429 56.423 37.9429 56.85Z" fill="#F7F7F7"/>
<path d="M38.483 60.35C38.485 60.5798 38.4187 60.805 38.2924 60.9971C38.1662 61.1892 37.9857 61.3394 37.7739 61.4288C37.5621 61.5181 37.3286 61.5425 37.1029 61.4989C36.8773 61.4552 36.6696 61.3456 36.5064 61.1837C36.3432 61.0219 36.2317 60.8152 36.1861 60.59C36.1405 60.3647 36.1629 60.1309 36.2504 59.9184C36.3379 59.7058 36.4866 59.5241 36.6775 59.3962C36.8685 59.2683 37.0932 59.2 37.323 59.2C37.629 59.1999 37.9225 59.3208 38.1398 59.5362C38.357 59.7515 38.4804 60.044 38.483 60.35Z" fill="#F7F7F7"/>
<path d="M66.313 61.77C68.6712 61.77 70.583 59.8582 70.583 57.5C70.583 55.1417 68.6712 53.23 66.313 53.23C63.9547 53.23 62.043 55.1417 62.043 57.5C62.043 59.8582 63.9547 61.77 66.313 61.77Z" fill="black"/>
<path d="M66.6529 56.2001C66.6529 56.5205 66.5578 56.8337 66.3798 57.1001C66.2018 57.3665 65.9488 57.5742 65.6528 57.6968C65.3568 57.8194 65.031 57.8515 64.7168 57.789C64.4025 57.7265 64.1139 57.5722 63.8873 57.3456C63.6608 57.1191 63.5065 56.8304 63.444 56.5162C63.3815 56.2019 63.4135 55.8762 63.5362 55.5802C63.6588 55.2841 63.8664 55.0311 64.1328 54.8531C64.3992 54.6751 64.7124 54.5801 65.0328 54.5801C65.2459 54.5788 65.4572 54.6198 65.6544 54.7007C65.8515 54.7817 66.0306 54.9009 66.1813 55.0516C66.332 55.2023 66.4513 55.3815 66.5322 55.5786C66.6132 55.7757 66.6542 55.987 66.6529 56.2001Z" fill="#F7F7F7"/>
<path d="M66.023 60.8501C66.6582 60.8501 67.173 60.3352 67.173 59.7001C67.173 59.0649 66.6582 58.55 66.023 58.55C65.3879 58.55 64.873 59.0649 64.873 59.7001C64.873 60.3352 65.3879 60.8501 66.023 60.8501Z" fill="#F7F7F7"/>
</svg>

<svg fill="none" xmlns="http://www.w3.org/2000/svg" viewBox="0 0 104 118"><path d="M44.973 23.18c0-2 .23-4.12.47-6.2a1.739 1.739 0 012-1.73c.5 0 1 0 1.52.05 1.43.09 2 .59 2.26 2 .35 2.14.65 4.29 1 6.43.08.61.17 1.22.2 1.83a1.66 1.66 0 01-1.23 1.89 18.53 18.53 0 01-3.87 1 2 2 0 01-2.14-1.72 21.344 21.344 0 01-.21-3.55z" fill="#569315"/><path d="M51.143 24.97c.9-6.43 3-12.71 8.39-17.48a27.42 27.42 0 017.35-4.52 83.521 83.521 0 018.05-2.85 1.87 1.87 0 01.52-.12c.47 0 .67.15.61.63a2.38 2.38 0 01-.26.82c-1.6 3.19-3.08 6.45-4.9 9.53a32.852 32.852 0 01-7.69 8.6 40.51 40.51 0 01-9.17 5.87c-.63.27-1.28.49-1.93.7-.84.3-1.05.11-.97-1.18z" fill="#96C11F"/><path d="M63.903 110.8l-1.47.52a17.002 17.002 0 00-7.27 4.73c-1.76 2-3.91 1.77-5.36-.51-.74-1.15-1.46-2.32-2.18-3.49a9.893 9.893 0 00-4.6-4 45.918 45.918 0 00-7.15-2.14 67.216 67.216 0 01-10-3.23 39 39 0 01-22-23.81 56 56 0 01-1.82-30.42 31.61 31.61 0 018.83-16.37 32.469 32.469 0 019.6-6.36 19.998 19.998 0 016.11-1.35c.6-.07 1.21-.12 1.81-.15a26.883 26.883 0 00-3.57 2.95 31.61 31.61 0 00-8.83 16.37 56 56 0 001.87 30.45 39 39 0 0022 23.81 67.25 67.25 0 0010 3.23 45.918 45.918 0 017.15 2.14 9.893 9.893 0 014.6 4c.72 1.17 1.44 2.34 2.18 3.49.031.048.064.095.1.14z" fill="#FF8D8D"/><path d="M98.913 85.18a52.37 52.37 0 01-9 14.61 15.745 15.745 0 01-4.86 3.74l-.8.39a76.566 76.566 0 01-11.37 4.15h-.1c-3 .87-5.94 1.69-8.87 2.7a1.746 1.746 0 01-.12-.17c-.74-1.15-1.46-2.32-2.18-3.49a9.894 9.894 0 00-4.6-4 45.917 45.917 0 00-7.15-2.14 67.247 67.247 0 01-10-3.23 39 39 0 01-22-23.81 56 56 0 01-1.87-30.45 31.61 31.61 0 018.83-16.37 26.88 26.88 0 013.66-2.89A39.228 39.228 0 0143.373 26c1.13.36 2.25.78 3.36 1.25.234.117.489.185.75.2a2.06 2.06 0 00.95-.24 60.907 60.907 0 0117-5 44.248 44.248 0 0118.25 1.13 27.72 27.72 0 018.52 4 19.29 19.29 0 016 7 42.481 42.481 0 014.51 14.63c.573 3.945.881 7.924.92 11.91a58.928 58.928 0 01-4.72 24.3z" fill="#F99"/><path d="M54.643 22.73a.749.749 0 01-.74-1 1.53 1.53 0 01.41-.62c3.81-4.21 7.6-8.43 11.43-12.61 1.51-1.65 3.12-3.22 4.69-4.82.229-.28.511-.51.83-.68a.75.75 0 01.89.18.7.7 0 01.05.9 3.85 3.85 0 01-.5.57c-3.82 3.69-7.35 7.67-10.87 11.64-1.73 2-3.5 3.85-5.25 5.78a1.69 1.69 0 01-.94.66zm38.84 22.72c-.92-8.9-7.2-16-16.15-17.4-2.52-.39-3.6 3.46-1.06 3.86 7.06 1.1 12.47 6.31 13.21 13.54.26 2.51 4.27 2.54 4 0zm2.43 10.24c-.79-2.44-4.66-1.4-3.86 1.06a22.28 22.28 0 01.22 13.54c-.73 2.48 3.13 3.53 3.86 1.07a26.179 26.179 0 00-.22-15.67z" fill="#fff"/><path d="M31.663 63.8c2.67.14 5 1 6.61 3.29a4.28 4.28 0 01-2.39 6.67 7.55 7.55 0 01-6.36-.93 10.783 10.783 0 01-2.35-1.85 4.002 4.002 0 011.21-6.46 6.34 6.34 0 013.28-.72zm39.3 10.49a5.2 5.2 0 01-4.58-2.39 3.67 3.67 0 01.5-4.88 9.67 9.67 0 018.27-2.6c3.36.53 4.29 4.71 2.31 6.94a8.43 8.43 0 01-6.5 2.93z" fill="#FF556E"/><path d="M51.483 70.68a13.64 13.64 0 01-7.14-1.74 7.177 7.177 0 01-1.58-1.2 2.57 2.57 0 01-.23-3.45 2.43 2.43 0 011.94-1 2.7 2.7 0 011.52.48l.15.1a8.2 8.2 0 002 1.08 10.65 10.65 0 003.36.52 15.995 15.995 0 003.54-.44 13.466 13.466 0 003.06-1.11c.32-.174.654-.318 1-.43a2.85 2.85 0 01.82-.13 2.47 2.47 0 012.16 1.25 2.51 2.51 0 01-.5 3.17c-.367.31-.774.568-1.21.77a20 20 0 01-8.84 2.08l-.05.05zm-13.88-8.25a4.27 4.27 0 100-8.54 4.27 4.27 0 000 8.54z" fill="#000"/><path d="M37.943 56.85a1.621 1.621 0 11-1.61-1.61 1.61 1.61 0 011.61 1.61zm.54 3.5a1.16 1.16 0 11-2.319.02 1.16 1.16 0 012.319-.02z" fill="#F7F7F7"/><path d="M66.313 61.77a4.27 4.27 0 100-8.54 4.27 4.27 0 000 8.54z" fill="#000"/><path d="M66.653 56.2a1.62 1.62 0 11-1.62-1.62 1.612 1.612 0 011.62 1.62zm-.63 4.65a1.15 1.15 0 100-2.3 1.15 1.15 0 000 2.3z" fill="#F7F7F7"/></svg>
